svgs/sharp-solid/arrow-down-triangle-square.svg

<svg xmlns="http://www.w3.org/2000/svg" viewBox="0 0 576 512"><!--! Font Awesome Pro 6.6.0 by @fontawesome - https://fontawesome.com License - https://fontawesome.com/license (Commercial License) Copyright 2024 Fonticons, Inc. --><path d="M160 479.6l23.7-26 80-88 21.5-23.7-47.4-43-21.5 23.7L192 349.2 192 64l0-32-64 0 0 32 0 285.2-24.3-26.8L82.2 298.8l-47.4 43 21.5 23.7 80 88 23.7 26zM416 32L304 224l224 0L416 32zm96 448l0-192-192 0 0 192 192 0z"/></svg>

<svg xmlns="http://www.w3.org/2000/svg" viewBox="0 0 576 512"><!--! Font Awesome Pro 6.4.2 by @fontawesome - https://fontawesome.com License - https://fontawesome.com/license (Commercial License) Copyright 2023 Fonticons, Inc. --><path d="M160 479.6l23.7-26 80-88 21.5-23.7-47.4-43-21.5 23.7L192 349.2V64 32H128V64 349.2l-24.3-26.8L82.2 298.8l-47.4 43 21.5 23.7 80 88 23.7 26zM416 32L304 224H528L416 32zm96 448V288H320V480H512z"/></svg>
